X:20
T:Harper's Frolic, The
M:2/4
L:1/8
B:Thompson's Compleat Collection of 200 Favourite Country Dances, vol. 3 (London, 1773)
Z:Transcribed and edited by Flynn Titford-Mock, 2007
Z:abc's:AK/Fiddler's Companion
K:D
A | FADA | FADd | cdec | d/c/d/e/ dA | FADA | FADd | cd ed/c/ | d3 :|
|: g | f d2 e/f/ | g e2 g | f d2 f | e/d/c/B/ A>g | f d2 e/f/ | g e2 g | fd ed/c/ | d3 :|

